!!!OTL: Stuebelein.
!!!ARE: Europa, Mitteleuropa, Deutschland
!!!SCT: A0204B
!!!OPR: 204a. Stete Liebe.
!!!TXL: @@GMH
!!!YEM: Copyright 1995, estate of Helmut Schaffrath.
**kern	**text
*M3/1	*
*met(3)	*
*clefC3	*
*k[b-]	*
*F:	*
=1	=1
!LO:TX:a:t=..	!
{0F	Wann_ich
1A	des
=2	=2
0c	mor-
1d	-gens
=3	=3
1c	frü
2B-	.
2A	.
1G	auf-
=4	=4
0.F}	-ſte,
=5||	=5||
{0.c	vnd
=6	=6
0d	in
1f	meins
=7	=7
0e	va-
1d	-ters
=8	=8
1c	ſtüb-
2d	.
2c	.
1B-	-lein
=9	=9
0.A}	ge,
=10||	=10||
!LO:TX:a:t=P:coloured notes measures 8-14:problem	!
!LO:N:vis=0	!
{1F	ſo
!LO:N:vis=0	!
1A	kumpt
!LO:N:vis=0	!
1c	mein
=11	=11
!LO:N:vis=00	!
0dll	lieb
!LO:N:vis=0	!
1c	vnd
=12	=12
!LO:N:vis=0	!
1F	beit
!LO:N:vis=0	!
1A	mir
!LO:N:vis=0	!
1c	ein
=13	=13
!LO:N:vis=00	!
0d	gu-
!LO:N:vis=0	!
1c	-ten
=14	=14
!LO:N:vis=0	!
1B-	mor-
!LO:N:vis=0	!
1A	.
!LO:N:vis=0	!
1G	.
=15	=15
!LO:N:vis=00	!
0.F/ll}	-gen.
=16||	=16||
!LO:TX:a:t=...	!
{0.f	Ein_guter
=17	=17
0e	mor-
1f	-gen
=18	=18
1g	iſt
*lig	*
2f	bald
2e	.
*Xlig	*
1d	da-
=19	=19
0.c}	-hin,_ich
=20	=20
{0d	wünſch
1f	meim
=21	=21
1c	bu-
*lig	*
2B-	-len
2A	.
*Xlig	*
1G	ein
=22	=22
0.F	ſte-
=23	=23
1c	.
2f	.
2e	.
1d	-ten
=24	=24
*lig	*
0.c}	ſin,
=25	=25
{0c	.
*Xlig	*
1A	dar-
=26	=26
0c	-ʒu
1A	ein
=27	=27
0F	frö-
1B-	-lichs
=28	=28
0A	gmü-
1G	.
=29	=29
0.F/ll}	-te.
==	==
!!!GTL: Liebeslieder
!!!AGN: Romanze, Ballade, Lied
!! Locheimer Liederbuch S. 45 (Druckausgabe S. 157).
!!!ONB: ESAC (Essen Associative Code) Database: ALTDEU
!!!AMT: simple triple
!!!AIN: vox
!!!EED: Helmut Schaffrath
!!!EEV: 1.0
!!!RDF**kern: l = terminal long
!!!URL-scan: https://rosdok.uni-rostock.de/mcrviewer/recordIdentifier/rosdok_ppn738218359/iview2/phys_0361.iview2?x=-1816.6124862433817&y=-1592.1706325025298&scale=0.262872707487861&rotation=0&layout=singlePageLayout
!!!ENC: Anna Maria Matuszewska
!!!EEV: 2024/08/03
*-	*-
